src/assets/images/contacts-icon-1.svg

<svg width="30" height="30" viewBox="0 0 30 30" fill="none" xmlns="http://www.w3.org/2000/svg">
<g clip-path="url(#clip0)">
<path d="M11.7711 18.8196L11.2749 25.7419C11.9849 25.7419 12.2924 25.4394 12.6611 25.0762L15.9899 21.9212L22.8874 26.9307C24.1524 27.6299 25.0436 27.2617 25.3849 25.7766L29.9124 4.73694L29.9136 4.7357C30.3149 2.88116 29.2374 2.15595 28.0049 2.61091L1.39236 12.7155C-0.423894 13.4146 -0.396394 14.4188 1.08361 14.8737L7.88736 16.9725L23.6911 7.16546C24.4349 6.67703 25.1111 6.94728 24.5549 7.43571L11.7711 18.8196Z" fill="#ffffff"/>
</g>
<defs>
<clipPath id="clip0">
<rect width="30" height="29.7521" fill="white"/>
</clipPath>
</defs>
</svg>

<svg xmlns="http://www.w3.org/2000/svg" width="30" height="30" fill="none"><g clip-path="url(#A)"><path d="M11.771 18.82l-.496 6.922c.71 0 1.018-.303 1.386-.666l3.329-3.155 6.897 5.01c1.265.699 2.156.331 2.497-1.154l4.528-21.04.001-.001c.401-1.855-.676-2.58-1.909-2.125L1.392 12.716c-1.816.699-1.789 1.703-.309 2.158l6.804 2.099 15.804-9.807c.744-.488 1.42-.218.864.27L11.771 18.82z" fill="#fff"/></g><defs><clipPath id="A"><path fill="#fff" d="M0 0h30v29.752H0z"/></clipPath></defs></svg>
